build/assets/instaIcon.svg

<svg width="56" height="57" viewBox="0 0 56 57" fill="none" xmlns="http://www.w3.org/2000/svg">
<path d="M38.9205 0.956543H16.5143C7.40829 0.956543 0 8.36483 0 17.4709V39.877C0 48.983 7.40829 56.3913 16.5143 56.3913H38.9205C48.0265 56.3913 55.4348 48.983 55.4348 39.877V17.4709C55.4347 8.36483 48.0264 0.956543 38.9205 0.956543ZM49.858 39.877C49.858 45.9176 44.9611 50.8146 38.9205 50.8146H16.5143C10.4737 50.8146 5.57674 45.9176 5.57674 39.877V17.4709C5.57674 11.4302 10.4737 6.53328 16.5143 6.53328H38.9205C44.9611 6.53328 49.858 11.4302 49.858 17.4709V39.877Z" fill="url(#paint0_linear_423_786)"/>
<path d="M27.7183 14.3365C19.8126 14.3365 13.3809 20.7683 13.3809 28.6739C13.3809 36.5794 19.8126 43.0113 27.7183 43.0113C35.6239 43.0113 42.0557 36.5795 42.0557 28.6739C42.0557 20.7682 35.6239 14.3365 27.7183 14.3365ZM27.7183 37.4346C22.8798 37.4346 18.9576 33.5124 18.9576 28.674C18.9576 23.8355 22.8799 19.9133 27.7183 19.9133C32.5567 19.9133 36.4789 23.8355 36.4789 28.674C36.4789 33.5123 32.5566 37.4346 27.7183 37.4346Z" fill="url(#paint1_linear_423_786)"/>
<path d="M42.0801 17.8797C43.9775 17.8797 45.5156 16.3416 45.5156 14.4442C45.5156 12.5468 43.9775 11.0087 42.0801 11.0087C40.1827 11.0087 38.6445 12.5468 38.6445 14.4442C38.6445 16.3416 40.1827 17.8797 42.0801 17.8797Z" fill="url(#paint2_linear_423_786)"/>
<defs>
<linearGradient id="paint0_linear_423_786" x1="27.7174" y1="56.23" x2="27.7174" y2="1.38711" gradientUnits="userSpaceOnUse">
<stop stop-color="#E09B3D"/>
<stop offset="0.3" stop-color="#C74C4D"/>
<stop offset="0.6" stop-color="#C21975"/>
<stop offset="1" stop-color="#7024C4"/>
</linearGradient>
<linearGradient id="paint1_linear_423_786" x1="27.7183" y1="56.23" x2="27.7183" y2="1.38714" gradientUnits="userSpaceOnUse">
<stop stop-color="#E09B3D"/>
<stop offset="0.3" stop-color="#C74C4D"/>
<stop offset="0.6" stop-color="#C21975"/>
<stop offset="1" stop-color="#7024C4"/>
</linearGradient>
<linearGradient id="paint2_linear_423_786" x1="42.0801" y1="56.23" x2="42.0801" y2="1.38715" gradientUnits="userSpaceOnUse">
<stop stop-color="#E09B3D"/>
<stop offset="0.3" stop-color="#C74C4D"/>
<stop offset="0.6" stop-color="#C21975"/>
<stop offset="1" stop-color="#7024C4"/>
</linearGradient>
</defs>
</svg>

<svg width="56" height="57" fill="none" xmlns="http://www.w3.org/2000/svg"><path d="M38.92.957H16.514C7.408.957 0 8.365 0 17.47v22.406c0 9.106 7.408 16.514 16.514 16.514H38.92c9.106 0 16.515-7.408 16.515-16.514V17.471C55.435 8.365 48.026.957 38.92.957Zm10.938 38.92c0 6.04-4.897 10.938-10.938 10.938H16.514c-6.04 0-10.937-4.897-10.937-10.938V17.471c0-6.04 4.897-10.938 10.937-10.938H38.92c6.041 0 10.938 4.897 10.938 10.938v22.406Z" fill="url(#a)"/><path d="M27.718 14.336c-7.905 0-14.337 6.432-14.337 14.338 0 7.905 6.432 14.337 14.337 14.337 7.906 0 14.338-6.431 14.338-14.337s-6.432-14.338-14.338-14.338Zm0 23.099a8.76 8.76 0 1 1 0-17.522 8.76 8.76 0 1 1 0 17.522Z" fill="url(#b)"/><path d="M42.08 17.88a3.435 3.435 0 1 0 0-6.871 3.435 3.435 0 0 0 0 6.87Z" fill="url(#c)"/><defs><linearGradient id="a" x1="27.717" y1="56.23" x2="27.717" y2="1.387" gradientUnits="userSpaceOnUse"><stop stop-color="#E09B3D"/><stop offset=".3" stop-color="#C74C4D"/><stop offset=".6" stop-color="#C21975"/><stop offset="1" stop-color="#7024C4"/></linearGradient><linearGradient id="b" x1="27.718" y1="56.23" x2="27.718" y2="1.387" gradientUnits="userSpaceOnUse"><stop stop-color="#E09B3D"/><stop offset=".3" stop-color="#C74C4D"/><stop offset=".6" stop-color="#C21975"/><stop offset="1" stop-color="#7024C4"/></linearGradient><linearGradient id="c" x1="42.08" y1="56.23" x2="42.08" y2="1.387" gradientUnits="userSpaceOnUse"><stop stop-color="#E09B3D"/><stop offset=".3" stop-color="#C74C4D"/><stop offset=".6" stop-color="#C21975"/><stop offset="1" stop-color="#7024C4"/></linearGradient></defs></svg>
